public/images/procreate.svg

<svg enable-background="new 0 0 1024 1024" viewBox="0 0 1024 1024" xmlns="http://www.w3.org/2000/svg" xmlns:xlink="http://www.w3.org/1999/xlink"><linearGradient id="a" gradientTransform="matrix(1 0 0 -1 0 1024)" gradientUnits="userSpaceOnUse" x1="507.1033" x2="490.0779" y1="398.624" y2="145.6835"><stop offset="0" stop-color="#fd5200"/><stop offset=".2722" stop-color="#ffdc38"/><stop offset=".9626" stop-color="#f3feab"/></linearGradient><linearGradient id="b"><stop offset=".4072" stop-color="#9e010a"/><stop offset=".6244" stop-color="#fc56a4"/><stop offset=".689" stop-color="#f2a780"/><stop offset=".7431" stop-color="#ffc78a"/></linearGradient><linearGradient id="c" gradientTransform="matrix(1 0 0 -1 0 1024)" gradientUnits="userSpaceOnUse" x1="348.9975" x2="178.6537" xlink:href="#b" y1="915.587" y2="258.2368"/><linearGradient id="d" gradientUnits="userSpaceOnUse" x1="541.5256" x2="478.4854" xlink:href="#b" y1="308.186" y2="761.3444"/><linearGradient id="e" gradientTransform="matrix(1 0 0 -1 0 1024)" gradientUnits="userSpaceOnUse" x1="670.5145" x2="191.3858" y1="618.9064" y2="273.548"><stop offset=".07537688" stop-color="#0c64cc"/><stop offset=".3348" stop-color="#1f9fe3"/><stop offset=".4851" stop-color="#1b9deb"/><stop offset=".7569" stop-color="#72f07f"/><stop offset=".8584" stop-color="#dbfec8"/><stop offset=".9913" stop-color="#f6f9b1"/></linearGradient><linearGradient id="f" gradientTransform="matrix(1 0 0 -1 0 1024)" gradientUnits="userSpaceOnUse" x1="656.4335" x2="450.1779" y1="424.4771" y2="547.248"><stop offset=".02512563" stop-color="#4226a2"/><stop offset=".2769" stop-color="#7357cb"/><stop offset=".4721" stop-color="#4783df"/><stop offset=".5228" stop-color="#3b8fe4"/><stop offset=".5797" stop-color="#3b9de4"/><stop offset=".6561" stop-color="#3ba7e4"/><stop offset=".7412" stop-color="#3babe4"/></linearGradient><linearGradient id="g" gradientTransform="matrix(1 0 0 -1 0 1024)" gradientUnits="userSpaceOnUse" x1="409.4708" x2="205.174" y1="9.2813" y2="130.8862"><stop offset="0" stop-color="#4226a2"/><stop offset=".3221" stop-color="#7357cb"/><stop offset=".6283" stop-color="#3b8fe4"/></linearGradient><linearGradient id="h" gradientTransform="matrix(1 0 0 -1 0 1024)" gradientUnits="userSpaceOnUse" x1="882.3486" x2="169.7424" y1="770.5908" y2="213.6404"><stop offset="0" stop-color="#7c4adf"/><stop offset=".3459" stop-color="#e251d8"/><stop offset=".7297" stop-color="#fcdfbc"/><stop offset=".8312" stop-color="#f6f8b0"/><stop offset=".9186" stop-color="#fffff2"/><stop offset=".9894" stop-color="#f6f8b0"/></linearGradient><path d="m764.4 964.5h-504.8c-110.5 0-200.1-89.6-200.1-200.1v-504.8c0-110.5 89.6-200.1 200.1-200.1h504.7c110.5 0 200.1 89.6 200.1 200.1v504.7c.1 110.6-89.5 200.2-200 200.2z" fill="#242424"/><path d="m478.9 446.3c-114.3 34-316.2 111.9-325.9 428 36.5-170.2 126.5-194.6 291.9-233.5 165.4-38.8 255.3-82.6 355.1-201.8 99.7-119.2 65.7-289.4 65.7-289.4 0 92.4-65.7 153.2-128.9 197s-143.6 65.7-257.9 99.7z" fill="url(#a)"/><path d="m153 874.4c.3-8.2.7-16.1 1.2-23.9-.9 8.4-1.4 16.4-1.2 23.9z" fill="url(#c)"/><path d="m578.4 601.8c-85.9 16.2-173.4 14.3-230.8 29.4-102.1 26.7-187.2 148.3-194.6 243.1.3-8.1.7-16 1.2-23.9 11.3-103.2 106.4-272.5 315-365.2 66.4-29.5 126.2-60.8 178.2-92.8 33.6-13.1 63-27.6 89.3-45.8 63.2-43.8 128.9-104.6 128.9-197 0 0 5.4 138.8-39.6 257.6-6.2 11.3-13.2 22.2-21.2 32.5-60.6 78.7-132.1 126.9-226.4 162.1z" fill="url(#d)"/><path d="m154.4 846.4c-.6 9.1-1.1 18.4-1.4 27.9-.6-8.6-.1-18 1.4-27.9 20.4-292.9 213.6-367.1 324.5-400.1 114.3-34 194.6-55.9 257.8-99.7s128.9-104.6 128.9-197c0 0 34.1 170.2-65.7 289.4-99.7 119.2-182.4 70.5-347.8 109.4-150.9 35.6-281.6 194.7-297.7 298z" fill="url(#e)"/><path d="m410.8 565.5c155.7-29.2 252.9-26.8 360-141.1 107-114.3 94.8-274.8 94.8-274.8 0 92.4-65.7 153.2-128.9 197-26.4 18.3-55.8 32.7-89.3 45.8-52 32-123.9 64.7-190.3 94.2-208.6 92.7-291.6 260.6-302.9 363.8-.5 7.8-.9 15.7-1.2 23.9 7.4-94.9 102.2-279.6 257.8-308.8z" fill="url(#f)"/><path d="m153 874.4c.3-8.2.7-16.1 1.2-23.9-.9 8.4-1.4 16.4-1.2 23.9z" fill="url(#g)"/><path d="m520.3 470.7c-284.6 53.5-369.7 304.8-367.3 403.7 7.3-94.8 90-204.3 197-262.7 158.1-80.3 323.5-36.5 437.8-153.2s77.8-308.9 77.8-308.9c0 92.4-34.1 180-94.9 231.1-60.7 51-182.3 77-250.4 90z" fill="url(#h)"/></svg>

<?xml version="1.0" encoding="utf-8"?>
<!-- Generator: Adobe Illustrator 26.4.1, SVG Export Plug-In . SVG Version: 6.00 Build 0)  -->
<svg version="1.1" id="Capa_1" xmlns="http://www.w3.org/2000/svg" xmlns:xlink="http://www.w3.org/1999/xlink" x="0px" y="0px"
	 viewBox="0 0 1024 1024" style="enable-background:new 0 0 1024 1024;" xml:space="preserve">
<style type="text/css">
	.st0{fill:#242424;}
	.st1{fill:url(#SVGID_1_);}
	.st2{fill:url(#SVGID_00000091735177979292553910000003467548787510439076_);}
	.st3{fill:url(#SVGID_00000166667592248123399630000017980745767473324433_);}
	.st4{fill:url(#SVGID_00000010295546894301292310000016863132700152985226_);}
	.st5{fill:url(#SVGID_00000066483551048482236430000001868009971166561202_);}
	.st6{fill:url(#SVGID_00000101809668036817937460000002835582579152762508_);}
	.st7{fill:url(#SVGID_00000005950625399547255190000005840225558190807682_);}
</style>
<g>
	<g>
		<path class="st0" d="M764.4,964.5H259.6c-110.5,0-200.1-89.6-200.1-200.1V259.6c0-110.5,89.6-200.1,200.1-200.1h504.7
			c110.5,0,200.1,89.6,200.1,200.1v504.7C964.5,874.9,874.9,964.5,764.4,964.5z"/>
	</g>
	<g>
		
			<linearGradient id="SVGID_1_" gradientUnits="userSpaceOnUse" x1="507.1033" y1="398.624" x2="490.0779" y2="145.6835" gradientTransform="matrix(1 0 0 -1 0 1024)">
			<stop  offset="0" style="stop-color:#FD5200"/>
			<stop  offset="0.2722" style="stop-color:#FFDC38"/>
			<stop  offset="0.9626" style="stop-color:#F3FEAB"/>
		</linearGradient>
		<path class="st1" d="M478.9,446.3c-114.3,34-316.2,111.9-325.9,428c36.5-170.2,126.5-194.6,291.9-233.5
			C610.3,602,700.2,558.2,800,439c99.7-119.2,65.7-289.4,65.7-289.4c0,92.4-65.7,153.2-128.9,197S593.2,412.3,478.9,446.3z"/>
		<g>
			
				<linearGradient id="SVGID_00000039092326242315265110000002040857071190454930_" gradientUnits="userSpaceOnUse" x1="348.9975" y1="915.587" x2="178.6537" y2="258.2368" gradientTransform="matrix(1 0 0 -1 0 1024)">
				<stop  offset="0.4072" style="stop-color:#9E010A"/>
				<stop  offset="0.6244" style="stop-color:#FC56A4"/>
				<stop  offset="0.689" style="stop-color:#F2A780"/>
				<stop  offset="0.7431" style="stop-color:#FFC78A"/>
			</linearGradient>
			<path style="fill:url(#SVGID_00000039092326242315265110000002040857071190454930_);" d="M153,874.4
				C153,874.4,153,874.3,153,874.4c0.3-8.2,0.7-16.1,1.2-23.9C153.3,858.9,152.8,866.9,153,874.4z"/>
			
				<linearGradient id="SVGID_00000181794001271669831550000005292106889239398333_" gradientUnits="userSpaceOnUse" x1="541.5256" y1="308.186" x2="478.4854" y2="761.3444">
				<stop  offset="0.4072" style="stop-color:#9E010A"/>
				<stop  offset="0.6244" style="stop-color:#FC56A4"/>
				<stop  offset="0.689" style="stop-color:#F2A780"/>
				<stop  offset="0.7431" style="stop-color:#FFC78A"/>
			</linearGradient>
			<path style="fill:url(#SVGID_00000181794001271669831550000005292106889239398333_);" d="M578.4,601.8
				C492.5,618,405,616.1,347.6,631.2C245.5,657.9,160.4,779.5,153,874.3c0.3-8.1,0.7-16,1.2-23.9c11.3-103.2,106.4-272.5,315-365.2
				c66.4-29.5,126.2-60.8,178.2-92.8c33.6-13.1,63-27.6,89.3-45.8c63.2-43.8,128.9-104.6,128.9-197c0,0,5.4,138.8-39.6,257.6
				c-6.2,11.3-13.2,22.2-21.2,32.5C744.2,518.4,672.7,566.6,578.4,601.8z"/>
		</g>
		
			<linearGradient id="SVGID_00000005953729597109592500000009902044977931578255_" gradientUnits="userSpaceOnUse" x1="670.5145" y1="618.9064" x2="191.3858" y2="273.548" gradientTransform="matrix(1 0 0 -1 0 1024)">
			<stop  offset="7.537688e-02" style="stop-color:#0C64CC"/>
			<stop  offset="0.3348" style="stop-color:#1F9FE3"/>
			<stop  offset="0.4851" style="stop-color:#1B9DEB"/>
			<stop  offset="0.7569" style="stop-color:#72F07F"/>
			<stop  offset="0.8584" style="stop-color:#DBFEC8"/>
			<stop  offset="0.9913" style="stop-color:#F6F9B1"/>
		</linearGradient>
		<path style="fill:url(#SVGID_00000005953729597109592500000009902044977931578255_);" d="M154.4,846.4c-0.6,9.1-1.1,18.4-1.4,27.9
			C152.4,865.7,152.9,856.3,154.4,846.4c20.4-292.9,213.6-367.1,324.5-400.1c114.3-34,194.6-55.9,257.8-99.7s128.9-104.6,128.9-197
			c0,0,34.1,170.2-65.7,289.4c-99.7,119.2-182.4,70.5-347.8,109.4C301.2,584,170.5,743.1,154.4,846.4z"/>
		<g>
			
				<linearGradient id="SVGID_00000036950125755622768890000013805321087796358311_" gradientUnits="userSpaceOnUse" x1="656.4335" y1="424.4771" x2="450.1779" y2="547.248" gradientTransform="matrix(1 0 0 -1 0 1024)">
				<stop  offset="2.512563e-02" style="stop-color:#4226A2"/>
				<stop  offset="0.2769" style="stop-color:#7357CB"/>
				<stop  offset="0.4721" style="stop-color:#4783DF"/>
				<stop  offset="0.5228" style="stop-color:#3B8FE4"/>
				<stop  offset="0.5797" style="stop-color:#3B9DE4"/>
				<stop  offset="0.6561" style="stop-color:#3BA7E4"/>
				<stop  offset="0.7412" style="stop-color:#3BABE4"/>
			</linearGradient>
			<path style="fill:url(#SVGID_00000036950125755622768890000013805321087796358311_);" d="M410.8,565.5
				c155.7-29.2,252.9-26.8,360-141.1c107-114.3,94.8-274.8,94.8-274.8c0,92.4-65.7,153.2-128.9,197c-26.4,18.3-55.8,32.7-89.3,45.8
				c-52,32-123.9,64.7-190.3,94.2c-208.6,92.7-291.6,260.6-302.9,363.8c-0.5,7.8-0.9,15.7-1.2,23.9
				C160.4,779.4,255.2,594.7,410.8,565.5z"/>
			
				<linearGradient id="SVGID_00000174597707216319922470000005333013460560930436_" gradientUnits="userSpaceOnUse" x1="409.4708" y1="9.2813" x2="205.174" y2="130.8862" gradientTransform="matrix(1 0 0 -1 0 1024)">
				<stop  offset="0" style="stop-color:#4226A2"/>
				<stop  offset="0.3221" style="stop-color:#7357CB"/>
				<stop  offset="0.6283" style="stop-color:#3B8FE4"/>
			</linearGradient>
			<path style="fill:url(#SVGID_00000174597707216319922470000005333013460560930436_);" d="M153,874.4
				C153,874.4,153,874.3,153,874.4c0.3-8.2,0.7-16.1,1.2-23.9C153.3,858.9,152.8,866.9,153,874.4z"/>
		</g>
		
			<linearGradient id="SVGID_00000063608329261139819030000010898274995102719129_" gradientUnits="userSpaceOnUse" x1="882.3486" y1="770.5908" x2="169.7424" y2="213.6404" gradientTransform="matrix(1 0 0 -1 0 1024)">
			<stop  offset="0" style="stop-color:#7C4ADF"/>
			<stop  offset="0.3459" style="stop-color:#E251D8"/>
			<stop  offset="0.7297" style="stop-color:#FCDFBC"/>
			<stop  offset="0.8312" style="stop-color:#F6F8B0"/>
			<stop  offset="0.9186" style="stop-color:#FFFFF2"/>
			<stop  offset="0.9894" style="stop-color:#F6F8B0"/>
		</linearGradient>
		<path style="fill:url(#SVGID_00000063608329261139819030000010898274995102719129_);" d="M520.3,470.7
			C235.7,524.2,150.6,775.5,153,874.4c7.3-94.8,90-204.3,197-262.7c158.1-80.3,323.5-36.5,437.8-153.2
			c114.3-116.7,77.8-308.9,77.8-308.9c0,92.4-34.1,180-94.9,231.1C710,431.7,588.4,457.7,520.3,470.7z"/>
	</g>
</g>
</svg>
